X:1
T:Sailor on the Deep Blue Sea
M:4/4
L:1/8
K:A
 CC/2-B,/2| A,3 B, C2 E2| F A3 z2 AF| E3 CC-B, A,2| B,4 z2 CB,| A,3 A, C2 E3/2 E/2|\
 F A3 z2 AF| EF ED C2G,-B,| A,4 z2||

